svg/ldap.svg

<?xml version="1.0" encoding="UTF-8"?>
<svg xmlns="http://www.w3.org/2000/svg" xmlns:xlink="http://www.w3.org/1999/xlink" width="32" height="32" viewBox="0 0 32 32">
<path fill-rule="nonzero" fill="rgb(20.392157%, 59.607846%, 85.882354%)" fill-opacity="1" d="M 16 2.050781 C 11.023438 2.054688 6.425781 4.714844 3.9375 9.023438 L 6.714844 9.023438 C 7.9375 7.402344 9.558594 6.125 11.421875 5.316406 C 10.765625 6.484375 10.257812 7.730469 9.914062 9.023438 L 12.363281 9.023438 C 13.28125 6.167969 14.691406 4.378906 16 4.378906 C 17.3125 4.378906 18.714844 6.167969 19.636719 9.023438 L 22.085938 9.023438 C 21.746094 7.730469 21.238281 6.484375 20.578125 5.316406 C 22.441406 6.125 24.066406 7.402344 25.289062 9.023438 L 28.066406 9.023438 C 25.574219 4.714844 20.976562 2.058594 16 2.050781 M 3.9375 22.980469 C 6.425781 27.292969 11.023438 29.949219 16.003906 29.949219 C 20.980469 29.949219 25.582031 27.292969 28.066406 22.980469 L 25.289062 22.980469 C 24.066406 24.601562 22.445312 25.878906 20.578125 26.683594 C 21.238281 25.519531 21.746094 24.273438 22.085938 22.980469 L 19.636719 22.980469 C 18.71875 25.835938 17.316406 27.625 16 27.625 C 14.683594 27.625 13.28125 25.835938 12.367188 22.976562 L 9.914062 22.976562 C 10.253906 24.273438 10.761719 25.519531 11.421875 26.683594 C 9.558594 25.878906 7.933594 24.601562 6.714844 22.976562 Z M 2.273438 10.046875 L 4.546875 10.046875 L 4.546875 19.621094 L 2.273438 19.621094 Z M 13.03125 19.621094 L 10.867188 19.621094 L 10.867188 18.8125 L 10.839844 18.8125 C 10.425781 19.460938 9.699219 19.84375 8.925781 19.820312 C 6.746094 19.820312 5.820312 17.957031 5.820312 15.996094 C 5.820312 14.1875 6.785156 12.472656 8.753906 12.472656 C 9.53125 12.4375 10.273438 12.792969 10.730469 13.421875 L 10.761719 13.421875 L 10.761719 10.046875 L 13.035156 10.046875 Z M 8.09375 16.066406 C 8.09375 17.019531 8.457031 18.078125 9.484375 18.078125 C 10.59375 18.078125 10.835938 17.019531 10.835938 16.136719 C 10.835938 15.128906 10.476562 14.207031 9.484375 14.207031 C 8.457031 14.203125 8.09375 15.183594 8.09375 16.066406 M 14.488281 14.808594 C 14.480469 14.035156 14.898438 13.320312 15.574219 12.945312 C 16.207031 12.582031 16.984375 12.460938 17.789062 12.460938 C 19.433594 12.460938 21.027344 12.824219 21.027344 14.792969 L 21.027344 17.835938 C 21.027344 18.425781 21.027344 19.070312 21.292969 19.621094 L 18.996094 19.621094 C 18.925781 19.40625 18.878906 19.1875 18.863281 18.964844 C 18.273438 19.59375 17.417969 19.820312 16.574219 19.820312 C 15.238281 19.820312 14.207031 19.152344 14.207031 17.710938 C 14.207031 15.457031 16.667969 15.617188 18.246094 15.292969 C 18.636719 15.203125 18.851562 15.082031 18.851562 14.652344 C 18.851562 14.128906 18.222656 13.929688 17.753906 13.929688 C 17.097656 13.929688 16.722656 14.222656 16.617188 14.800781 Z M 17.433594 18.414062 C 18.515625 18.414062 18.875 17.808594 18.824219 16.363281 C 18.503906 16.566406 17.914062 16.589844 17.414062 16.738281 C 16.914062 16.882812 16.476562 17.074219 16.476562 17.621094 C 16.476562 18.167969 16.910156 18.414062 17.433594 18.414062 M 22.515625 12.664062 L 24.683594 12.664062 L 24.683594 13.46875 L 24.710938 13.46875 C 25.128906 12.820312 25.851562 12.4375 26.621094 12.460938 C 28.804688 12.460938 29.726562 14.324219 29.726562 16.285156 C 29.726562 18.097656 28.765625 19.8125 26.796875 19.8125 C 26.019531 19.839844 25.28125 19.484375 24.816406 18.859375 L 24.792969 18.859375 L 24.792969 21.941406 L 22.515625 21.941406 Z M 24.710938 16.066406 C 24.710938 17.285156 25.058594 18.078125 26.085938 18.078125 C 27.117188 18.078125 27.453125 17.019531 27.453125 16.066406 C 27.453125 15.183594 27.117188 14.203125 26.101562 14.203125 C 25.5 14.203125 24.710938 14.621094 24.710938 16.066406 M 24.710938 16.066406 "/>
</svg>

<svg role="img" viewBox="0 0 32 32" xmlns="http://www.w3.org/2000/svg"><path d="M16 2.05A13.95 13.95 0 0 0 3.938 9.024h2.777a11.76 11.76 0 0 1 4.707-3.707 16 16 0 0 0-1.508 3.707h2.45C13.28 6.168 14.69 4.38 16 4.38c1.313 0 2.715 1.789 3.637 4.644h2.449a15.6 15.6 0 0 0-1.508-3.707 11.77 11.77 0 0 1 4.711 3.707h2.777A13.97 13.97 0 0 0 16 2.051M3.938 22.98a13.928 13.928 0 0 0 24.128 0H25.29a11.7 11.7 0 0 1-4.71 3.703 15.5 15.5 0 0 0 1.507-3.704h-2.45c-.917 2.856-2.32 4.645-3.636 4.645s-2.719-1.79-3.633-4.648H9.914c.34 1.296.848 2.543 1.508 3.707a11.67 11.67 0 0 1-4.707-3.707ZM2.273 10.046h2.274v9.574H2.273Zm10.758 9.574h-2.164v-.808h-.027a2.19 2.19 0 0 1-1.914 1.007c-2.18 0-3.106-1.863-3.106-3.824 0-1.809.965-3.523 2.934-3.523.777-.036 1.52.32 1.976.949h.032v-3.375h2.273Zm-4.937-3.555c0 .954.363 2.012 1.39 2.012 1.11 0 1.352-1.058 1.352-1.941 0-1.008-.36-1.93-1.352-1.93-1.027-.004-1.39.977-1.39 1.86m6.394-1.258a2.11 2.11 0 0 1 1.086-1.864c.633-.363 1.41-.484 2.215-.484 1.645 0 3.238.363 3.238 2.332v3.043c0 .59 0 1.234.266 1.785h-2.297a2.7 2.7 0 0 1-.133-.656c-.59.629-1.445.855-2.289.855-1.336 0-2.367-.668-2.367-2.11 0-2.253 2.461-2.093 4.04-2.417.39-.09.605-.211.605-.64 0-.524-.63-.723-1.098-.723-.656 0-1.031.293-1.137.87Zm2.946 3.605c1.082 0 1.441-.605 1.39-2.05-.32.202-.91.226-1.41.374-.5.145-.937.336-.937.883s.433.793.957.793m5.082-5.75h2.168v.805h.027a2.19 2.19 0 0 1 1.91-1.008c2.184 0 3.106 1.863 3.106 3.824 0 1.813-.961 3.528-2.93 3.528a2.36 2.36 0 0 1-1.98-.954h-.024v3.082h-2.277Zm2.195 3.402c0 1.22.348 2.012 1.375 2.012 1.031 0 1.367-1.058 1.367-2.012 0-.882-.336-1.863-1.351-1.863-.602 0-1.391.418-1.391 1.863m0 0" fill="rgb(20.392157%, 59.607846%, 85.882354%)"/></svg>
